X:498
T: Moyanggong
N: C1917
O: China, Hebei Changli
S: IV, 34]
R: Xiaodiao]
M: 2/4
L: 1/16
K: A
e4f2e2 | c2B2A2F2 | e4f2e2 | c4z4
A4A2F2 | e4f2e2 | c4B2F2 | A4z4
A2A2A2F2 | f4f2e2 | c4e2c2 | B4B4
e2c2e2e2 | A2B2c4 | B2A2F4 | E8
A2F2A2B2 | c2B2c4
e2c2e4 | A2B2c4 | B2A2F4 | E8

